X:1
T:[ID 5-22]
T:[ID 5-22]
T:Bezeichnung standardisiert: S\"achsischer Rebell; Sachsische Rebel In dieser Quelle auch als: S\"acksischer Rebell In dieser Quelle auch als: Sacksische Rebell
T:Urheber unbekannt Datum in der hier transkribierten schriftlichen Quelle: 1773
C:Urheber unbekannt
C:Datum in der hier transkribierten schriftlichen Quelle: 1773
%%score 1 2
L:1/8
M:2/4
K:G
V:1 treble 
V:2 treble 
V:1
 GGGA | BGGA | B"^1)"GBc | dGGB | dddd | de/f/ gd | dccB | B2 A2 :: (3ded (3cdc | (3BcB A2 | %10
 (3ded (3cdc | (3BcB A2 | dd dd | de/f/ gd | BG AF | G4 :| %16
V:2
 !fermata!B,B,B,F | GB,B,F | G"^1)"FGA | BGGG | BBBB | Bc/d/ eB | BAAG | G2 F2 :: (3BcB (3ABA | %9
 (3GAG F2 | (3BcB (3ABA | (3GAG F2 | BB BB | Bc/d/ eB | G2 D2 | G4 :| %16

